X:163
T:The Chieftains Are Coming
C:Terence "Cuz" Teahan
B:Terry "Cuz" Teahan "Sliabh Luachra on Parade" 1980
Z:Patrick Cavanagh
M:4/4
L:1/8
R:Reel
K:G
| DGGG G2B/c/d | e2dB gedB | A2AA A2B/A/G | E2DE GEDE | 
G2GG G2B/c/d | e2dB gedB | dBAG E2EG | AGED EGG2 :| 
| B/c/d ed BedB | dGGG EGDG | Bddg egdB | dBAG EGG2 | 
B/c/d ed BedB | dGGG EGDG | Bddg egdB | dBAG EGG2 :|| 

